!!!COM: Vivaldi, Antonio
!!!CDT: 1678/03/04/-1741/07/27/
!!!OTL: Concerto in D Minor, Op. 6, No. 6
!!!OMV: No. 2
!!!OMD: Largo
**kern	**dynam	**kern	**kern	**dynam	**kern	**dynam
*staff4	*staff4	*staff3	*staff2	*staff2	*staff1	*staff1
*Icemba	*Icemba	*Icemba	*Icello	*Icello	*Ivioln	*Ivioln
*clefF4	*clefF4	*clefG2	*clefF4	*clefF4	*clefG2	*clefG2
*k[b-]	*k[b-]	*k[b-]	*k[b-]	*k[b-]	*k[b-]	*k[b-]
*M3/4	*M3/4	*M3/4	*M3/4	*M3/4	*M3/4	*M3/4
*MM48	*MM48	*MM48	*MM48	*MM48	*MM48	*MM48
=1-	=1-	=1-	=1-	=1-	=1-	=1-
4F\	p	2.r	4F\	p	4ff\	mf
4F\	.	.	4F\	.	8.ee\L	.
.	.	.	.	.	16dd\Jk	.
4F\	.	.	4F\	.	4cc\	.
=2	=2	=2	=2	=2	=2	=2
4F\	.	2.r	4F\	.	8.ccc\L	.
.	.	.	.	.	16bb-\k	.
4F\	.	.	4F\	.	8.aa\	.
.	.	.	.	.	16gg\Jk	.
4F\	.	.	4F\	.	4ff\	.
=3	=3	=3	=3	=3	=3	=3
4C/	.	2.r	4C/	.	4.ee\	.
4C/	.	.	4C/	.	.	.
.	.	.	.	.	8dd\	.
4C/	.	.	4C/	.	4cc\	.
=4	=4	=4	=4	=4	=4	=4
4C/	.	2.r	4C/	.	4bb-\	.
4C/	.	.	4C/	.	4aa\	.
4C/	.	.	4C/	.	4gg\	.
=5	=5	=5	=5	=5	=5	=5
4F\	.	2.r	4F\	.	4.aa\	.
4F\	.	.	4F\	.	.	.
.	.	.	.	.	8gg\	.
4F\	.	.	4F\	.	4ff\	.
=6	=6	=6	=6	=6	=6	=6
4f\	.	2.r	4f\	.	8aa\L	.
.	.	.	.	.	8ff\	.
4f\	.	.	4f\	.	8ee\	.
.	.	.	.	.	8ff\	.
4f\	.	.	4f\	.	8aa\	.
.	.	.	.	.	8ddd\J	.
=7	=7	=7	=7	=7	=7	=7
4e\	.	2.r	4e\	.	8gg\L	.
.	.	.	.	.	8ee\	.
4e\	.	.	4e\	.	8dd\	.
.	.	.	.	.	8ee\	.
4e\	.	.	4e\	.	8gg\	.
.	.	.	.	.	8ccc\J	.
=8	=8	=8	=8	=8	=8	=8
4d\	.	2.r	4d\	.	8ff\L	.
.	.	.	.	.	8dd\	.
4d\	.	.	4d\	.	8cc\	.
.	.	.	.	.	8dd\	.
4d\	.	.	4d\	.	8ff\	.
.	.	.	.	.	8bb-\J	.
=9	=9	=9	=9	=9	=9	=9
4c\	.	2.r	4c\	.	8ee\L	.
.	.	.	.	.	8cc\	.
4c\	.	.	4c\	.	8bn\	.
.	.	.	.	.	8cc\	.
4c\	.	.	4c\	.	8ee\	.
.	.	.	.	.	8aa\J	.
=10	=10	=10	=10	=10	=10	=10
4Bn\	.	2.r	4Bn\	.	8aa\L	.
.	.	.	.	.	8ff\	.
4B\	.	.	4B\	.	8bbn\	.
.	.	.	.	.	8ddd\	.
4B\	.	.	4B\	.	8ff\	.
.	.	.	.	.	8dd\J	.
=11	=11	=11	=11	=11	=11	=11
8c\L	.	2.r	8c\L	.	8ee\L	.
8C\J	.	.	8C\J	.	8aa\J	.
4G\	.	.	4G\	.	4.dd\	.
4GG/	.	.	4GG/	.	.	.
.	.	.	.	.	8cc\	.
=12	=12	=12	=12	=12	=12	=12
4C/	.	2.r	4C/	.	4cc\	.
4c\	.	.	4c\	.	8.cc\L	.
.	.	.	.	.	16bn\Jk	.
4c\	.	.	4c\	.	16cc\LL	.
.	.	.	.	.	16dd\	.
.	.	.	.	.	16ee\	.
.	.	.	.	.	16ff\JJ	.
=13	=13	=13	=13	=13	=13	=13
4Bn\	.	2.r	4Bn\	.	4gg\	.
4B\	.	.	4B\	.	4g/	.
4B\	.	.	4B\	.	4gg\	.
=14	=14	=14	=14	=14	=14	=14
4A\	.	2.r	4A\	.	4gg\	.
4A\	.	.	4A\	.	4.ff\	.
4A\	.	.	4A\	.	.	.
.	.	.	.	.	8ff\	.
=15	=15	=15	=15	=15	=15	=15
4G\	.	2.r	4G\	.	16ff\LL	.
.	.	.	.	.	16bb-\	.
.	.	.	.	.	16aa\	.
.	.	.	.	.	16bb-\JJ	.
4G\	.	.	4G\	.	4.ee\	.
4G\	.	.	4G\	.	.	.
.	.	.	.	.	8ee\	.
=16	=16	=16	=16	=16	=16	=16
4F\	.	2.r	4F\	.	8.aa\L	.
.	.	.	.	.	16gg\k	.
4F\	.	.	4F\	.	8.ff\	.
.	.	.	.	.	16ee\k	.
4F\	.	.	4F\	.	8.dd\	.
.	.	.	.	.	16cc\Jk	.
=17	=17	=17	=17	=17	=17	=17
4F\	.	2.r	4F\	.	[4bn\	.
4F\	.	.	4F\	.	16b\LL]	.
.	.	.	.	.	16g\	.
.	.	.	.	.	16b\	.
.	.	.	.	.	16cc\JJ	.
4F\	.	.	4F\	.	16dd\LL	.
.	.	.	.	.	16b\	.
.	.	.	.	.	16dd\	.
.	.	.	.	.	16ff\JJ	.
=18	=18	=18	=18	=18	=18	=18
.	.	.	.	.	aaq/	.
4E\	.	2.r	4E\	.	8.gg#\L	.
.	.	.	.	.	16aa\k	.
4E\	.	.	4E\	.	8.bbn\	.
.	.	.	.	.	16dd\k	.
4E\	.	.	4E\	.	8.cc\	.
.	.	.	.	.	16bn\Jk	.
=19	=19	=19	=19	=19	=19	=19
4D#\	.	2.r	4D#\	.	[4cc\	.
4D#\	.	.	4D#\	.	16cc\LL]	.
.	.	.	.	.	16a\	.
.	.	.	.	.	16cc\	.
.	.	.	.	.	16ff#\JJ	.
4D#\	.	.	4D#\	.	16aa\LL	.
.	.	.	.	.	16cc\	.
.	.	.	.	.	16bn\	.
.	.	.	.	.	16a\JJ	.
=20	=20	=20	=20	=20	=20	=20
8E\L	.	2.r	8E\L	.	8gg#\L	.
8AA\J	.	.	8AA\J	.	8aa\J	.
4E\	.	.	4E\	.	4cc\	.
4EE/	.	.	4EE/	.	8.bn/L	.
.	.	.	.	.	16a/Jk	.
=21	=21	=21	=21	=21	=21	=21
4AA/	.	2.r	4AA/	.	4a/	.
4A\	.	.	4A\	.	4aa\	.
4A\	.	.	4A\	.	4a/	.
=22	=22	=22	=22	=22	=22	=22
4D\	.	2.r	4D\	.	4.ff\	.
4G\	.	.	4G\	.	.	.
.	.	.	.	.	16ee\LL	.
.	.	.	.	.	16ff\JJ	.
4G\	.	.	4G\	.	16gg\LL	.
.	.	.	.	.	16ff\	.
.	.	.	.	.	16ee\	.
.	.	.	.	.	16dd\JJ	.
=23	=23	=23	=23	=23	=23	=23
4G\	.	2.r	4G\	.	16cc#\LL	.
.	.	.	.	.	16a\	.
.	.	.	.	.	16cc#\	.
.	.	.	.	.	16dd\JJ	.
4G\	.	.	4G\	.	16ee\LL	.
.	.	.	.	.	16cc#\	.
.	.	.	.	.	16ee\	.
.	.	.	.	.	16gg\JJ	.
4G\	.	.	4G\	.	16aa\LL	.
.	.	.	.	.	16ee\	.
.	.	.	.	.	16ff\	.
.	.	.	.	.	16gg\JJ	.
=24	=24	=24	=24	=24	=24	=24
4D\	.	2.r	4D\	.	4.ff\	.
4D\	.	.	4D\	.	.	.
.	.	.	.	.	16aa\LL	.
.	.	.	.	.	16gg\JJ	.
4D\	.	.	4D\	.	16ff\LL	.
.	.	.	.	.	16ee\	.
.	.	.	.	.	16dd\	.
.	.	.	.	.	16cc\JJ	.
=25	=25	=25	=25	=25	=25	=25
4G\	.	2.r	4G\	.	16bn\LL	.
.	.	.	.	.	16g\	.
.	.	.	.	.	16b\	.
.	.	.	.	.	16cc\JJ	.
4G\	.	.	4G\	.	16dd\LL	.
.	.	.	.	.	16b\	.
.	.	.	.	.	16dd\	.
.	.	.	.	.	16ff\JJ	.
4G\	.	.	4G\	.	16gg\LL	.
.	.	.	.	.	16dd\	.
.	.	.	.	.	16ee\	.
.	.	.	.	.	16ff\JJ	.
=26	=26	=26	=26	=26	=26	=26
4C/	.	2.r	4C/	.	4.ee\	.
4C/	.	.	4C/	.	.	.
.	.	.	.	.	16gg\LL	.
.	.	.	.	.	16ff\JJ	.
4C/	.	.	4C/	.	16ee\LL	.
.	.	.	.	.	16dd\	.
.	.	.	.	.	16cc\	.
.	.	.	.	.	16b-\JJ	.
=27	=27	=27	=27	=27	=27	=27
4F\	.	2.r	4F\	.	4.a/	.
4F\	.	.	4F\	.	.	.
.	.	.	.	.	16aa\LL	.
.	.	.	.	.	16gg\JJ	.
4F\	.	.	4F\	.	16ff\LL	.
.	.	.	.	.	16ee\	.
.	.	.	.	.	16dd\	.
.	.	.	.	.	16cc\JJ	.
=28	=28	=28	=28	=28	=28	=28
4G\	.	2.r	4G\	.	4.b-\	.
4G\	.	.	4G\	.	.	.
.	.	.	.	.	16bb-\LL	.
.	.	.	.	.	16aa\JJ	.
4G\	.	.	4G\	.	16gg\LL	.
.	.	.	.	.	16ff\	.
.	.	.	.	.	16ee\	.
.	.	.	.	.	16dd\JJ	.
=29	=29	=29	=29	=29	=29	=29
4C/	.	2.r	4C/	.	16ee\LL	.
.	.	.	.	.	16cc\	.
.	.	.	.	.	16ee\	.
.	.	.	.	.	16ff\JJ	.
4C/	.	.	4C/	.	16gg\LL	.
.	.	.	.	.	16ee\	.
.	.	.	.	.	16gg\	.
.	.	.	.	.	16aa\JJ	.
4C/	.	.	4C/	.	16bb-\LL	.
.	.	.	.	.	16gg\	.
.	.	.	.	.	16aa\	.
.	.	.	.	.	16bb-\JJ	.
=30	=30	=30	=30	=30	=30	=30
4F\	.	2.r	4F\	.	8aa\L	.
.	.	.	.	.	16gg\L	.
.	.	.	.	.	16ff\JJ	.
4c\	.	.	4c\	.	4.ee\	.
4C/	.	.	4C/	.	.	.
.	.	.	.	.	8ff\	.
=31	=31	=31	=31	=31	=31	=31
4BBn/	.	2.r	4BBn/	.	[4ff\	.
4BB/	.	.	4BB/	.	16ff\LL]	.
.	.	.	.	.	16dd\	.
.	.	.	.	.	16ff\	.
.	.	.	.	.	16aa\JJ	.
4BB/	.	.	4BB/	.	16gg\LL	.
.	.	.	.	.	16ff\	.
.	.	.	.	.	16ee\	.
.	.	.	.	.	16dd\JJ	.
=32	=32	=32	=32	=32	=32	=32
4C/	.	2.r	4C/	.	16ee\LL	.
.	.	.	.	.	16cc\	.
.	.	.	.	.	16ee\	.
.	.	.	.	.	16ff\JJ	.
4C/	.	.	4C/	.	16gg\LL	.
.	.	.	.	.	16ee\	.
.	.	.	.	.	16gg\	.
.	.	.	.	.	16aa\JJ	.
4C/	.	.	4C/	.	16bb-\LL	.
.	.	.	.	.	16gg\	.
.	.	.	.	.	16aa\	.
.	.	.	.	.	16bb-\JJ	.
=33	=33	=33	=33	=33	=33	=33
4F\	.	2.r	4F\	.	8aa\L	.
.	.	.	.	.	16gg\L	.
.	.	.	.	.	16ff\JJ	.
4c\	.	.	4c\	.	4.ee\	.
4C/	.	.	4C/	.	.	.
.	.	.	.	.	8ff\	.
=34	=34	=34	=34	=34	=34	=34
2.FF;/	.	2.r	2.FF;/	.	2.ff;\	.
==	==	==	==	==	==	==
*-	*-	*-	*-	*-	*-	*-
!!!ENC: Don Anthony
!!!END: 2005/06/10/
!!!ONB: Converted to Humdrum by Craig Sapp 2005/06/26/
